X: 10
T: Lilting Banshee, The
Z: Fritz Bogott
S: https://thesession.org/tunes/60#setting49714
R: jig
M: 6/8
L: 1/8
K: Ador
|:"Am"EAA EAA|"G"BAB G2A|"Em"Bee edB|"G"dBA GED|
"Am"EAA EAA|"G"BAB G2A|"Em"Bee edB| "G"dBG "Am"A3:||
|:"Am"aga age|"G"dBA G2A|"Em" Bee edB|"D"def "G"g3|
"Am"eaa age|"G"dBA G2A|"Em"Bee edB|"G"dBG "Am"A3:||

